rospo-icon-theme-classic-common/48x48/apps/com.github.rickybas.date-countdown.svg

<svg height="48" viewBox="0 0 48 48" width="48" xmlns="http://www.w3.org/2000/svg"><path d="m22 7.9647824c0 1.6584312 1.343146 3.0028556 3 3.0028556v14.013325h-15c0-1.658431-1.3431458-3.002855-3-3.002855s-3 1.344424-3 3.002855c.0003175.08484.00423.169636.011719.254148.1389196 10.952263 9.045552 19.759354 19.988281 19.764889 11.045695 0 20-8.962828 20-20.019037-.023467-10.307135-7.86184-18.9118332-18.113281-19.8841423l-.0059-.00195c-1.964188-.4433152-3.835591.6927476-3.880819 2.8699117z" opacity=".2"/><path d="m22 6.9647824c0 1.6584312 1.343146 3.0028554 3 3.0028554v14.0133252h-15c0-1.658431-1.3431458-3.002855-3-3.002855s-3 1.344424-3 3.002855c.0003175.08484.00423.169636.011719.254148.1389196 10.952263 9.045552 19.759354 19.988281 19.764889 11.045695 0 20-8.962828 20-20.019037-.023467-10.307135-7.86184-18.9118332-18.113281-19.8841423l-.0059-.00195c-1.964188-.4433152-3.835591.6927476-3.880819 2.8699117z" fill="#4c91d9"/><circle cx="24" cy="25" opacity=".2" r="14"/><circle cx="24" cy="24" fill="#fff" r="14"/><path d="m25.152344 4.0019531c-1.674669-.0497711-3.112769 1.0578721-3.152344 2.9628907 0 .1932673.021788.3813454.056641.5644531.274607-1.883002 1.999353-2.8454641 3.824218-2.4335938l.00586.0019531c10.139426.961685 17.906167 9.3918138 18.097656 19.5488278.007238-.221371.015625-.442882.015625-.666015-.023467-10.307135-7.86184-18.9105037-18.113281-19.8828128l-.00586-.0019531c-.245523-.0554144-.489277-.0866398-.728515-.09375zm-18.152344 16.9765629c-1.6568542 0-3 1.343522-3 3.001953.0003175.08484.0042298.169394.0117188.253906.001934.152481.0122633.303447.0175781.455078.1482137-1.519821 1.4134004-2.710937 2.9707031-2.710937 1.6568542 0 3 1.343522 3 3.001953h15v-1h-15c0-1.658431-1.3431458-3.001953-3-3.001953z" fill="#fff" opacity=".2"/></svg>

<svg xmlns="http://www.w3.org/2000/svg" width="48" height="48" version="1.1" viewBox="0 0 48 48">
 <path d="m 22,7.9647824 c 0,1.6584312 1.343146,3.0028556 3,3.0028556 l 0,14.013325 -15,0 c 0,-1.658431 -1.3431458,-3.002855 -3,-3.002855 -1.6568542,0 -3,1.344424 -3,3.002855 3.175e-4,0.08484 0.00423,0.169636 0.011719,0.254148 C 4.1506386,36.187374 13.057271,44.994465 24,45 35.045695,45 44,36.037172 44,24.980963 43.976533,14.673828 36.13816,6.0691298 25.886719,5.0968207 l -0.0059,-0.00195 C 23.916631,4.6515555 22.045228,5.7876183 22,7.9647824 Z" style="opacity:0.2"/>
 <path style="fill:#4c91d9" d="m 22,6.9647824 c 0,1.6584312 1.343146,3.0028554 3,3.0028554 l 0,14.0133252 -15,0 c 0,-1.658431 -1.3431458,-3.002855 -3,-3.002855 -1.6568542,0 -3,1.344424 -3,3.002855 3.175e-4,0.08484 0.00423,0.169636 0.011719,0.254148 C 4.1506386,35.187374 13.057271,43.994465 24,44 35.045695,44 44,35.037172 44,23.980963 43.976533,13.673828 36.13816,5.0691298 25.886719,4.0968207 l -0.0059,-0.00195 C 23.916631,3.6515555 22.045228,4.7876183 22,6.9647824 Z"/>
 <circle style="opacity:0.2" cx="24" cy="25" r="14"/>
 <circle style="fill:#ffffff" cx="24" cy="24" r="14"/>
 <path style="fill:#ffffff;opacity:0.2" d="M 25.152344 4.0019531 C 23.477675 3.952182 22.039575 5.0598252 22 6.9648438 C 22 7.1581111 22.021788 7.3461892 22.056641 7.5292969 C 22.331248 5.6462949 24.055994 4.6838328 25.880859 5.0957031 L 25.886719 5.0976562 C 36.026145 6.0593412 43.792886 14.48947 43.984375 24.646484 C 43.991613 24.425113 44 24.203602 44 23.980469 C 43.976533 13.673334 36.13816 5.0699653 25.886719 4.0976562 L 25.880859 4.0957031 C 25.635336 4.0402887 25.391582 4.0090633 25.152344 4.0019531 z M 7 20.978516 C 5.3431458 20.978516 4 22.322038 4 23.980469 C 4.0003175 24.065309 4.0042298 24.149863 4.0117188 24.234375 C 4.0136528 24.386856 4.0239821 24.537822 4.0292969 24.689453 C 4.1775106 23.169632 5.4426973 21.978516 7 21.978516 C 8.6568542 21.978516 10 23.322038 10 24.980469 L 25 24.980469 L 25 23.980469 L 10 23.980469 C 10 22.322038 8.6568542 20.978516 7 20.978516 z"/>
</svg>
